build/svg/cmd/km/lc_bold.svg

<?xml version="1.0" encoding="UTF-8" standalone="no"?>
<svg
   xmlns:dc="http://purl.org/dc/elements/1.1/"
   xmlns:cc="http://creativecommons.org/ns#"
   xmlns:rdf="http://www.w3.org/1999/02/22-rdf-syntax-ns#"
   xmlns:svg="http://www.w3.org/2000/svg"
   xmlns="http://www.w3.org/2000/svg"
   xmlns:sodipodi="http://sodipodi.sourceforge.net/DTD/sodipodi-0.dtd"
   xmlns:inkscape="http://www.inkscape.org/namespaces/inkscape"
   viewBox="0 0 24 24"
   version="1.1"
   id="svg4"
   sodipodi:docname="lc_bold.svg"
   inkscape:export-filename="/home/jupiter007/Libreoffice yaru theme fullcolor/build/cmd/km/lc_bold.png"
   inkscape:export-xdpi="96"
   inkscape:export-ydpi="96"
   inkscape:version="0.92.5 (2060ec1f9f, 2020-04-08)">
  <metadata
     id="metadata10">
    <rdf:RDF>
      <cc:Work
         rdf:about="">
        <dc:format>image/svg+xml</dc:format>
        <dc:type
           rdf:resource="http://purl.org/dc/dcmitype/StillImage" />
      </cc:Work>
    </rdf:RDF>
  </metadata>
  <defs
     id="defs8" />
  <sodipodi:namedview
     pagecolor="#ffffff"
     bordercolor="#666666"
     borderopacity="1"
     objecttolerance="10"
     gridtolerance="10"
     guidetolerance="10"
     inkscape:pageopacity="0"
     inkscape:pageshadow="2"
     inkscape:window-width="1920"
     inkscape:window-height="1011"
     id="namedview6"
     showgrid="false"
     inkscape:zoom="9.8333333"
     inkscape:cx="0.66101695"
     inkscape:cy="12"
     inkscape:window-x="0"
     inkscape:window-y="32"
     inkscape:window-maximized="1"
     inkscape:current-layer="svg4" />
  <path
     style="fill:#000000;stroke:#000000;opacity:0.6;stroke-width:2;stroke-miterlimit:4;stroke-dasharray:none;stroke-linejoin:round"
     id="path817"
     fill="#232629"
     d="m10.509766 2c-2.6400007 0-3.9589847.9254919-3.9589848 2.7773438 0 1.1111111.3662761 1.6679687 1.0996094 1.6679687h6.1816404v2.5546875c0 .37037-.411088.554688-1.232422.554688h-3.4316402v-1.4433599h-3.1679688v3.5332029h8.359375c1.760001 0 2.640625-.881568 2.640625-2.644531v-2.5546875h-.550781v-1.6679687c-.806667-.7407408-1.723334-1.3878038-2.75-1.9433594-1.034-.5555556-2.096787-.8339844-3.189453-.8339844zm0 2c1.363999 0 2.456009.3333333 3.277343 1h-4.4863278c.0000001-.6666667.4023178-1 1.2089848-1zm-4.509766 8.855469v9.144531h2.9589844l2.5527346-2.333984 2.541015 2.333984h2.947266v-9.144531h-3.167969v6.222656l-2.320312-2.132813-2.3437502 2.154297v-6.24414z" />
  <path
     d="m10.509766 2c-2.6400007 0-3.9589847.9254919-3.9589848 2.7773438 0 1.1111111.3662761 1.6679687 1.0996094 1.6679687h6.1816404v2.5546875c0 .37037-.411088.554688-1.232422.554688h-3.4316402v-1.4433599h-3.1679688v3.5332029h8.359375c1.760001 0 2.640625-.881568 2.640625-2.644531v-2.5546875h-.550781v-1.6679687c-.806667-.7407408-1.723334-1.3878038-2.75-1.9433594-1.034-.5555556-2.096787-.8339844-3.189453-.8339844zm0 2c1.363999 0 2.456009.3333333 3.277343 1h-4.4863278c.0000001-.6666667.4023178-1 1.2089848-1zm-4.509766 8.855469v9.144531h2.9589844l2.5527346-2.333984 2.541015 2.333984h2.947266v-9.144531h-3.167969v6.222656l-2.320312-2.132813-2.3437502 2.154297v-6.24414z"
     fill="#232629"
     id="path2"
     style="fill:#ffffff" />
</svg>

<svg xmlns="http://www.w3.org/2000/svg" viewBox="0 0 24 24"><path d="M10.51 2c-2.64 0-3.96.925-3.96 2.777 0 1.111.367 1.668 1.1 1.668h6.182V9c0 .37-.411.555-1.232.555H9.168V8.11H6v3.534h8.36c1.76 0 2.64-.882 2.64-2.645V6.445h-.55V4.777a13.635 13.635 0 00-2.75-1.943C12.664 2.278 11.601 2 10.51 2zm0 2c1.364 0 2.456.333 3.277 1H9.301c0-.667.402-1 1.209-1zM6 12.855V22h2.959l2.553-2.334L14.052 22H17v-9.145h-3.168v6.223l-2.32-2.133L9.168 19.1v-6.245z" stroke="#000" opacity=".6" stroke-width="2" stroke-linejoin="round"/><path d="M10.51 2c-2.64 0-3.96.925-3.96 2.777 0 1.111.367 1.668 1.1 1.668h6.182V9c0 .37-.411.555-1.232.555H9.168V8.11H6v3.534h8.36c1.76 0 2.64-.882 2.64-2.645V6.445h-.55V4.777a13.635 13.635 0 00-2.75-1.943C12.664 2.278 11.601 2 10.51 2zm0 2c1.364 0 2.456.333 3.277 1H9.301c0-.667.402-1 1.209-1zM6 12.855V22h2.959l2.553-2.334L14.052 22H17v-9.145h-3.168v6.223l-2.32-2.133L9.168 19.1v-6.245z" fill="#fff"/></svg>
